X:1
T:MacKenzie's Rant
L:1/8
M:4/4
I:linebreak $
K:A
V:1 treble 
V:1
 e | A<Ac>e eA/B/ ce | =G<GB>A{A} G2 GB | A<Ac>e eA/B/ ce | ae/f/ =g>B A2 A :| e |$ c>BAg a>e=gB | %7
 =G<GB>A{A} G2 G>B |{d} c>B Af/g/ ae=gB | ae/f/ =gB{B} A2 A>e |${d} c>B A>g ae/f/ =gB | %11
 =G<GB>A G>ABG | A>Bc>e d>e=g>a | =g>eg>B{B} A2 A || %14
